packages/bezier-icons/icons/feed.svg

<svg width="24" height="24" viewBox="0 0 24 24" fill="none" xmlns="http://www.w3.org/2000/svg">
<path fill-rule="evenodd" clip-rule="evenodd" d="M5 3C3.34315 3 2 4.34315 2 6V12C2 13.6569 3.34315 15 5 15H19C20.6569 15 22 13.6569 22 12V6C22 4.34315 20.6569 3 19 3H5ZM19 5H5C4.44772 5 4 5.44772 4 6V12C4 12.5523 4.44772 13 5 13H19C19.5523 13 20 12.5523 20 12V6C20 5.44772 19.5523 5 19 5Z" fill="#313234"/>
<path d="M4 16C4 17.1046 4.89543 18 6 18H18C19.1046 18 20 17.1046 20 16H4Z" fill="#313234"/>
<path d="M18 19C18 20.1046 17.1046 21 16 21H8C6.89543 21 6 20.1046 6 19H18Z" fill="#313234"/>
</svg>

<svg xmlns="http://www.w3.org/2000/svg" width="24" height="24" fill="none" viewBox="0 0 24 24"><path fill="#313234" fill-rule="evenodd" d="M5 3a3 3 0 0 0-3 3v6a3 3 0 0 0 3 3h14a3 3 0 0 0 3-3V6a3 3 0 0 0-3-3zm14 2H5a1 1 0 0 0-1 1v6a1 1 0 0 0 1 1h14a1 1 0 0 0 1-1V6a1 1 0 0 0-1-1" clip-rule="evenodd"/><path fill="#313234" d="M4 16a2 2 0 0 0 2 2h12a2 2 0 0 0 2-2zM18 19a2 2 0 0 1-2 2H8a2 2 0 0 1-2-2z"/></svg>
